assets/icons/game-controller-filled.svg

<svg height="24" width="24" xmlns="http://www.w3.org/2000/svg"><path style="fill:gray;stroke-width:2;stroke-linecap:round;fill-opacity:1" d="M6.5 9A4.5 4.5 0 0 0 2 13.5 4.5 4.5 0 0 0 6.5 18a4.5 4.5 0 0 0 2.813-1h5.374a4.5 4.5 0 0 0 2.813 1 4.5 4.5 0 0 0 4.5-4.5A4.5 4.5 0 0 0 17.5 9h-11zM6 12h1v1h1v1H7v1H6v-1H5v-1h1v-1zm4.5 0a.5.5 0 0 1 .5.5.5.5 0 0 1-.5.5.5.5 0 0 1-.5-.5.5.5 0 0 1 .5-.5zm3 0a.5.5 0 0 1 .5.5.5.5 0 0 1-.5.5.5.5 0 0 1-.5-.5.5.5 0 0 1 .5-.5zm4 0a.5.5 0 0 1 .5.5.5.5 0 0 1-.5.5.5.5 0 0 1-.5-.5.5.5 0 0 1 .5-.5zm-1 1a.5.5 0 0 1 .5.5.5.5 0 0 1-.5.5.5.5 0 0 1-.5-.5.5.5 0 0 1 .5-.5zm2 0a.5.5 0 0 1 .5.5.5.5 0 0 1-.5.5.5.5 0 0 1-.5-.5.5.5 0 0 1 .5-.5zm-1 1a.5.5 0 0 1 .5.5.5.5 0 0 1-.5.5.5.5 0 0 1-.5-.5.5.5 0 0 1 .5-.5z"/><path style="fill:gray;stroke-width:2;stroke-linecap:butt;fill-opacity:1" d="M11 6h2v3h-2zm0-2h2v1h-2zm0-2h2v1h-2z"/></svg>

<?xml version="1.0" encoding="UTF-8" standalone="no"?>
<svg
   viewBox="0 0 24 24"
   height="24"
   width="24"
   version="1.1"
   id="svg4"
   sodipodi:docname="game-controller-filled.svg"
   inkscape:version="1.2 (1:1.2.1+202207142221+cd75a1ee6d)"
   xmlns:inkscape="http://www.inkscape.org/namespaces/inkscape"
   xmlns:sodipodi="http://sodipodi.sourceforge.net/DTD/sodipodi-0.dtd"
   xmlns="http://www.w3.org/2000/svg"
   xmlns:svg="http://www.w3.org/2000/svg">
  <defs
     id="defs8" />
  <sodipodi:namedview
     id="namedview6"
     pagecolor="#ffffff"
     bordercolor="#666666"
     borderopacity="1.0"
     inkscape:pageshadow="2"
     inkscape:pageopacity="0.0"
     inkscape:pagecheckerboard="0"
     showgrid="true"
     width="24px"
     inkscape:zoom="22.627417"
     inkscape:cx="12.948893"
     inkscape:cy="10.650796"
     inkscape:window-width="1920"
     inkscape:window-height="1043"
     inkscape:window-x="0"
     inkscape:window-y="0"
     inkscape:window-maximized="1"
     inkscape:current-layer="svg4"
     inkscape:showpageshadow="2"
     inkscape:deskcolor="#d1d1d1">
    <inkscape:grid
       type="xygrid"
       id="grid825" />
    <inkscape:grid
       type="xygrid"
       id="grid876"
       dotted="true"
       spacingx="0.5"
       spacingy="0.5"
       empspacing="0" />
  </sodipodi:namedview>
  <path
     id="path303"
     style="fill:#808080;fill-rule:evenodd;stroke-width:2;stroke-linecap:round;fill-opacity:1"
     d="M 6.5 9 A 4.5 4.5 0 0 0 2 13.5 A 4.5 4.5 0 0 0 6.5 18 A 4.5 4.5 0 0 0 9.3125 17 L 14.6875 17 A 4.5 4.5 0 0 0 17.5 18 A 4.5 4.5 0 0 0 22 13.5 A 4.5 4.5 0 0 0 17.5 9 L 6.5 9 z M 6 12 L 7 12 L 7 13 L 8 13 L 8 14 L 7 14 L 7 15 L 6 15 L 6 14 L 5 14 L 5 13 L 6 13 L 6 12 z M 10.5 12 A 0.5 0.5 0 0 1 11 12.5 A 0.5 0.5 0 0 1 10.5 13 A 0.5 0.5 0 0 1 10 12.5 A 0.5 0.5 0 0 1 10.5 12 z M 13.5 12 A 0.5 0.5 0 0 1 14 12.5 A 0.5 0.5 0 0 1 13.5 13 A 0.5 0.5 0 0 1 13 12.5 A 0.5 0.5 0 0 1 13.5 12 z M 17.5 12 A 0.5 0.5 0 0 1 18 12.5 A 0.5 0.5 0 0 1 17.5 13 A 0.5 0.5 0 0 1 17 12.5 A 0.5 0.5 0 0 1 17.5 12 z M 16.5 13 A 0.5 0.5 0 0 1 17 13.5 A 0.5 0.5 0 0 1 16.5 14 A 0.5 0.5 0 0 1 16 13.5 A 0.5 0.5 0 0 1 16.5 13 z M 18.5 13 A 0.5 0.5 0 0 1 19 13.5 A 0.5 0.5 0 0 1 18.5 14 A 0.5 0.5 0 0 1 18 13.5 A 0.5 0.5 0 0 1 18.5 13 z M 17.5 14 A 0.5 0.5 0 0 1 18 14.5 A 0.5 0.5 0 0 1 17.5 15 A 0.5 0.5 0 0 1 17 14.5 A 0.5 0.5 0 0 1 17.5 14 z " />
  <rect
     style="fill:#808080;fill-rule:evenodd;stroke-width:2;stroke-linecap:butt;fill-opacity:1"
     id="rect1942"
     width="2"
     height="3"
     x="11"
     y="6" />
  <rect
     style="fill:#808080;fill-rule:evenodd;stroke-width:2;stroke-linecap:butt;fill-opacity:1"
     id="rect1944"
     width="2"
     height="1"
     x="11"
     y="4" />
  <rect
     style="fill:#808080;fill-rule:evenodd;stroke-width:2;stroke-linecap:butt;fill-opacity:1"
     id="rect2048"
     width="2"
     height="1"
     x="11"
     y="2" />
</svg>
